icons/share-forward-2-line.svg

<svg viewBox="0 0 24 24" fill="currentColor" xmlns="http://www.w3.org/2000/svg"><path d="M4 18.9997H20V13.9997H22V19.9997C22 20.552 21.5523 20.9997 21 20.9997H3C2.44772 20.9997 2 20.552 2 19.9997V13.9997H4V18.9997ZM16.1716 6.9997L12.2218 3.04996L13.636 1.63574L20 7.9997L13.636 14.3637L12.2218 12.9495L16.1716 8.9997H5V6.9997H16.1716Z"/></svg>

<svg xmlns="http://www.w3.org/2000/svg" viewBox="0 0 24 24">
    <g>
        <path fill="none" d="M0 0h24v24H0z"/>
        <path d="M4 19h16v-5h2v6a1 1 0 0 1-1 1H3a1 1 0 0 1-1-1v-6h2v5zM16.172 7l-3.95-3.95 1.414-1.414L20 8l-6.364 6.364-1.414-1.414L16.172 9H5V7h11.172z"/>
    </g>
</svg>
